muse3/svg/pre_fader_on.svg

<?xml version="1.0" encoding="UTF-8"?>
<svg width="16mm" height="16mm" fill-rule="evenodd" stroke-linejoin="round" stroke-width="28.222" preserveAspectRatio="xMidYMid" version="1.2" viewBox="0 0 1600 1600" xml:space="preserve" xmlns="http://www.w3.org/2000/svg" xmlns:cc="http://creativecommons.org/ns#" xmlns:dc="http://purl.org/dc/elements/1.1/" xmlns:ooo="http://xml.openoffice.org/svg/export" xmlns:rdf="http://www.w3.org/1999/02/22-rdf-syntax-ns#"><rect class="BoundingBox" x="82" y="82" width="1438" height="1438" fill="none"/><metadata><rdf:RDF><cc:Work rdf:about=""><dc:format>image/svg+xml</dc:format><dc:type rdf:resource="http://purl.org/dc/dcmitype/StillImage"/><dc:title/></cc:Work></rdf:RDF></metadata>
 
 <defs class="TextShapeIndex">
  
 </defs>
 <defs class="EmbeddedBulletChars">
  
  
  
  
  
  
  
  
  
 </defs>
 
 
 
<rect class="BoundingBox" x="680" y="33" width="238" height="1538" fill="none"/><path d="m731 51c-17 0-33 16-33 33v1434c0 16 16 33 33 33h134c16 0 33-17 33-33v-1434c0-17-17-33-33-33z" fill="#ff0"/><path d="m731 51c-17 0-33 16-33 33v1434c0 16 16 33 33 33h134c16 0 33-17 33-33v-1434c0-17-17-33-33-33z" fill="none" stroke="#000" stroke-linejoin="round" stroke-width="35"/><rect class="BoundingBox" x="392" y="773" width="813" height="448" fill="none"/><path d="m478 791c-34 0-68 34-68 68v274c0 34 34 69 68 69h639c34 0 69-35 69-69v-274c0-34-35-68-69-68z" fill="#ff0"/><g fill="none"><path d="m478 791c-34 0-68 34-68 68v274c0 34 34 69 68 69h639c34 0 69-35 69-69v-274c0-34-35-68-69-68z" stroke="#000" stroke-linejoin="round" stroke-width="35"/><rect class="BoundingBox" x="280" y="283" width="237" height="37"/><path d="m298 301h200" stroke="#000" stroke-linejoin="round" stroke-width="35"/><rect class="BoundingBox" x="280" y="583" width="237" height="37"/><path d="m298 601h200" stroke="#000" stroke-linejoin="round" stroke-width="35"/><rect class="BoundingBox" x="384" y="987" width="829" height="29"/><path d="m398 1001h800" stroke="#000" stroke-linejoin="round" stroke-width="28"/><rect class="BoundingBox" x="280" y="1383" width="237" height="37"/><path d="m298 1401h200" stroke="#000" stroke-linejoin="round" stroke-width="35"/></g></svg>

<?xml version="1.0" encoding="UTF-8"?>
<!DOCTYPE svg PUBLIC "-//W3C//DTD SVG 1.1//EN" "http://www.w3.org/Graphics/SVG/1.1/DTD/svg11.dtd">
<svg version="1.2" width="16mm" height="16mm" viewBox="0 0 1600 1600" preserveAspectRatio="xMidYMid" fill-rule="evenodd" stroke-width="28.222" stroke-linejoin="round" xmlns="http://www.w3.org/2000/svg" xmlns:ooo="http://xml.openoffice.org/svg/export" xmlns:xlink="http://www.w3.org/1999/xlink" xmlns:presentation="http://sun.com/xmlns/staroffice/presentation" xmlns:smil="http://www.w3.org/2001/SMIL20/" xmlns:anim="urn:oasis:names:tc:opendocument:xmlns:animation:1.0" xml:space="preserve">
 <defs class="ClipPathGroup">
  <clipPath id="presentation_clip_path" clipPathUnits="userSpaceOnUse">
   <rect x="0" y="0" width="1600" height="1600"/>
  </clipPath>
 </defs>
 <defs class="TextShapeIndex">
  <g ooo:slide="id1" ooo:id-list="id3 id4 id5 id6 id7 id8 id9"/>
 </defs>
 <defs class="EmbeddedBulletChars">
  <g id="bullet-char-template(57356)" transform="scale(0.00048828125,-0.00048828125)">
   <path d="M 580,1141 L 1163,571 580,0 -4,571 580,1141 Z"/>
  </g>
  <g id="bullet-char-template(57354)" transform="scale(0.00048828125,-0.00048828125)">
   <path d="M 8,1128 L 1137,1128 1137,0 8,0 8,1128 Z"/>
  </g>
  <g id="bullet-char-template(10146)" transform="scale(0.00048828125,-0.00048828125)">
   <path d="M 174,0 L 602,739 174,1481 1456,739 174,0 Z M 1358,739 L 309,1346 659,739 1358,739 Z"/>
  </g>
  <g id="bullet-char-template(10132)" transform="scale(0.00048828125,-0.00048828125)">
   <path d="M 2015,739 L 1276,0 717,0 1260,543 174,543 174,936 1260,936 717,1481 1274,1481 2015,739 Z"/>
  </g>
  <g id="bullet-char-template(10007)" transform="scale(0.00048828125,-0.00048828125)">
   <path d="M 0,-2 C -7,14 -16,27 -25,37 L 356,567 C 262,823 215,952 215,954 215,979 228,992 255,992 264,992 276,990 289,987 310,991 331,999 354,1012 L 381,999 492,748 772,1049 836,1024 860,1049 C 881,1039 901,1025 922,1006 886,937 835,863 770,784 769,783 710,716 594,584 L 774,223 C 774,196 753,168 711,139 L 727,119 C 717,90 699,76 672,76 641,76 570,178 457,381 L 164,-76 C 142,-110 111,-127 72,-127 30,-127 9,-110 8,-76 1,-67 -2,-52 -2,-32 -2,-23 -1,-13 0,-2 Z"/>
  </g>
  <g id="bullet-char-template(10004)" transform="scale(0.00048828125,-0.00048828125)">
   <path d="M 285,-33 C 182,-33 111,30 74,156 52,228 41,333 41,471 41,549 55,616 82,672 116,743 169,778 240,778 293,778 328,747 346,684 L 369,508 C 377,444 397,411 428,410 L 1163,1116 C 1174,1127 1196,1133 1229,1133 1271,1133 1292,1118 1292,1087 L 1292,965 C 1292,929 1282,901 1262,881 L 442,47 C 390,-6 338,-33 285,-33 Z"/>
  </g>
  <g id="bullet-char-template(9679)" transform="scale(0.00048828125,-0.00048828125)">
   <path d="M 813,0 C 632,0 489,54 383,161 276,268 223,411 223,592 223,773 276,916 383,1023 489,1130 632,1184 813,1184 992,1184 1136,1130 1245,1023 1353,916 1407,772 1407,592 1407,412 1353,268 1245,161 1136,54 992,0 813,0 Z"/>
  </g>
  <g id="bullet-char-template(8226)" transform="scale(0.00048828125,-0.00048828125)">
   <path d="M 346,457 C 273,457 209,483 155,535 101,586 74,649 74,723 74,796 101,859 155,911 209,963 273,989 346,989 419,989 480,963 531,910 582,859 608,796 608,723 608,648 583,586 532,535 482,483 420,457 346,457 Z"/>
  </g>
  <g id="bullet-char-template(8211)" transform="scale(0.00048828125,-0.00048828125)">
   <path d="M -4,459 L 1135,459 1135,606 -4,606 -4,459 Z"/>
  </g>
 </defs>
 <defs class="TextEmbeddedBitmaps"/>
 <g>
  <g id="id2" class="Master_Slide">
   <g id="bg-id2" class="Background"/>
   <g id="bo-id2" class="BackgroundObjects"/>
  </g>
 </g>
 <g class="SlideGroup">
  <g>
   <g id="id1" class="Slide" clip-path="url(#presentation_clip_path)">
    <g class="Page">
     <g class="com.sun.star.drawing.CustomShape">
      <g id="id3">
       <rect class="BoundingBox" stroke="none" fill="none" x="680" y="33" width="238" height="1538"/>
       <path fill="rgb(114,159,207)" stroke="none" d="M 731,51 C 714,51 698,67 698,84 L 698,1518 C 698,1534 714,1551 731,1551 L 865,1551 C 881,1551 898,1534 898,1518 L 898,84 C 898,67 881,51 865,51 L 731,51 Z M 698,51 L 698,51 Z M 899,1552 L 899,1552 Z"/>
       <path fill="none" stroke="rgb(0,0,0)" stroke-width="35" stroke-linejoin="round" d="M 731,51 C 714,51 698,67 698,84 L 698,1518 C 698,1534 714,1551 731,1551 L 865,1551 C 881,1551 898,1534 898,1518 L 898,84 C 898,67 881,51 865,51 L 731,51 Z"/>
      </g>
     </g>
     <g class="com.sun.star.drawing.CustomShape">
      <g id="id4">
       <rect class="BoundingBox" stroke="none" fill="none" x="392" y="773" width="813" height="448"/>
       <path fill="rgb(114,159,207)" stroke="none" d="M 478,791 C 444,791 410,825 410,859 L 410,1133 C 410,1167 444,1202 478,1202 L 1117,1202 C 1151,1202 1186,1167 1186,1133 L 1186,859 C 1186,825 1151,791 1117,791 L 478,791 Z M 410,791 L 410,791 Z M 1186,1202 L 1186,1202 Z"/>
       <path fill="none" stroke="rgb(0,0,0)" stroke-width="35" stroke-linejoin="round" d="M 478,791 C 444,791 410,825 410,859 L 410,1133 C 410,1167 444,1202 478,1202 L 1117,1202 C 1151,1202 1186,1167 1186,1133 L 1186,859 C 1186,825 1151,791 1117,791 L 478,791 Z"/>
      </g>
     </g>
     <g class="com.sun.star.drawing.LineShape">
      <g id="id5">
       <rect class="BoundingBox" stroke="none" fill="none" x="280" y="283" width="237" height="37"/>
       <path fill="none" stroke="rgb(0,0,0)" stroke-width="35" stroke-linejoin="round" d="M 298,301 L 498,301"/>
      </g>
     </g>
     <g class="com.sun.star.drawing.LineShape">
      <g id="id6">
       <rect class="BoundingBox" stroke="none" fill="none" x="280" y="583" width="237" height="37"/>
       <path fill="none" stroke="rgb(0,0,0)" stroke-width="35" stroke-linejoin="round" d="M 298,601 L 498,601"/>
      </g>
     </g>
     <g class="com.sun.star.drawing.LineShape">
      <g id="id7">
       <rect class="BoundingBox" stroke="none" fill="none" x="384" y="987" width="829" height="29"/>
       <path fill="none" stroke="rgb(0,0,0)" stroke-width="28" stroke-linejoin="round" d="M 398,1001 L 1198,1001"/>
      </g>
     </g>
     <g class="com.sun.star.drawing.LineShape">
      <g id="id8">
       <rect class="BoundingBox" stroke="none" fill="none" x="280" y="1383" width="237" height="37"/>
       <path fill="none" stroke="rgb(0,0,0)" stroke-width="35" stroke-linejoin="round" d="M 298,1401 L 498,1401"/>
      </g>
     </g>
     <g class="com.sun.star.drawing.CustomShape">
      <g id="id9">
       <rect class="BoundingBox" stroke="none" fill="none" x="82" y="82" width="1438" height="1438"/>
       <path fill="rgb(255,51,51)" stroke="none" d="M 100,1047 L 100,1500 1500,553 1500,100 100,1047 Z M 100,100 L 100,100 Z M 1501,1501 L 1501,1501 Z"/>
       <path fill="none" stroke="rgb(0,0,0)" stroke-width="35" stroke-linejoin="round" d="M 100,1047 L 100,1500 1500,553 1500,100 100,1047 Z"/>
      </g>
     </g>
    </g>
   </g>
  </g>
 </g>
</svg>
